!!!OTL: ES BLIES EIN JAEGER WOHL IN SEIN HORN
!!!ARE: Europa, Mitteleuropa, Deutschland, Herzogtum Berg
!!!SCT: Z0234
!!!YEM: Copyright 1995, estate of Helmut Schaffrath.
**kern
*ICvox
*Ivox
*M2/4
*k[b-e-a-]
*E-:
{16g
16a-
=1
8b-
8cc
8b-
8a-
=2
8g
8f
8g}
{16a-
16b-
=3
8cc
8b-
8a-
8g
=4
4f
8r}
{16e-
16g
=5
8b-
8b-
8b-
8ee-
=6
4cc}
{8b-
8a-
=7
4g
8f
8e-
=8
4e-
8r}
{16e-
16f
=9
8g
16g
16g
8g
16g
16g
=10
4g
8r}
{16f
16g
=11
8a-
16a-
16a-
8a-
16a-
16a-
=12
4a-
8r}
{16g
16a-
=13
8b-
8b-
8b-
8ee-
=14
4cc
8b-}
{8a-
=15
4g
8f
8f
=16
4e-
8r}
==
!!!AGN: Jaeger - Lied
!!!ONB: ESAC (Essen Associative Code) Database: ZUCCAL
!!!AMT: simple duple
!!!AIN: vox
!!!EED: Helmut Schaffrath
!!!EEV: 1.0
*-
